icons/people-two-two-color.svg

<?xml version="1.0" encoding="UTF-8"?><svg xmlns="http://www.w3.org/2000/svg" viewBox="0 0 50 50"><g id="uuid-e7f92ce8-e5b5-4495-8f4e-961b2c148d97"><g><path d="M41.6,30.01h-12.86c-1.4,.07-2.79,.52-4.01,1.29-.18,.11-.41,.1-.58-.03-1.11-.87-2.44-1.37-3.84-1.44H9.69c-3.6,.18-6.43,3.16-6.43,6.78v3.41H20.36c.28,0,.5,.22,.5,.5v2.01h28.63v-4.23c0-4.43-3.47-8.07-7.89-8.3Z" fill="#ffcd00"/><path d="M8.25,24.44c1.4,1.19,3.19,1.84,5.02,1.84s3.62-.65,5.02-1.84c1.76-1.48,2.76-3.65,2.76-5.94,0-4.29-3.49-7.79-7.79-7.79s-7.79,3.49-7.79,7.79c0,2.29,1.01,4.46,2.76,5.94Zm11.81-5.94c0,2-.88,3.89-2.41,5.18-1.22,1.03-2.78,1.6-4.38,1.6s-3.15-.57-4.38-1.6c-1.53-1.29-2.41-3.18-2.41-5.18,0-3.74,3.04-6.79,6.79-6.79s6.79,3.04,6.79,6.79Z"/><path d="M27.42,23.88c1.68,1.42,3.81,2.2,6,2.2s4.33-.78,6-2.2c2.1-1.78,3.3-4.37,3.3-7.11,0-5.13-4.18-9.31-9.31-9.31s-9.31,4.17-9.31,9.31c0,2.74,1.2,5.33,3.3,7.11Zm6-15.41c4.58,0,8.31,3.73,8.31,8.31,0,2.45-1.08,4.76-2.95,6.34-1.5,1.27-3.4,1.96-5.36,1.96s-3.86-.7-5.36-1.96c-1.87-1.59-2.95-3.9-2.95-6.34,0-4.58,3.73-8.31,8.31-8.31Z"/><path d="M39.86,27.26h-12.9c-1.54,.08-2.98,.52-4.23,1.25-1.18-.83-2.6-1.35-4.15-1.43H7.92c-4.15,.21-7.41,3.62-7.41,7.78v3.91c0,.28,.22,.5,.5,.5H18.11v2.02c0,.28,.22,.5,.5,.5h29.63c.28,0,.5-.22,.5-.5v-4.73c0-4.97-3.89-9.05-8.88-9.3Zm7.88,13.52H19.11v-4.23c0-4.43,3.47-8.08,7.88-8.3h12.85c4.43,.22,7.9,3.87,7.9,8.3v4.23ZM1.51,34.86c0-3.62,2.84-6.6,6.43-6.78h10.62c1.2,.06,2.32,.43,3.27,1.03-2.27,1.7-3.73,4.41-3.73,7.44v1.71H1.51v-3.41Z"/></g></g><g id="uuid-4ebf4352-b5bd-4fba-8d90-04c60868ed1e"><text transform="translate(.06 55.02)" font-family="Roboto-Regular, Roboto" font-size="6"><tspan x="0" y="0">person-two</tspan></text></g></svg>

<svg xmlns="http://www.w3.org/2000/svg" viewBox="0 0 50 50"><g id="ef6b0429-f987-468a-9126-8e9856424b5a" data-name="ICONS"><path d="M41.6,30H28.74a8.33,8.33,0,0,0-4,1.29.5.5,0,0,1-.57,0,6.8,6.8,0,0,0-3.84-1.44H9.69a6.79,6.79,0,0,0-6.43,6.78V40h17.1a.5.5,0,0,1,.5.5v2H49.49V38.31A8.31,8.31,0,0,0,41.6,30Z" fill="#fdd600"/><path d="M8.25,24.44a7.78,7.78,0,1,0-2.77-6A7.8,7.8,0,0,0,8.25,24.44Zm11.8-6a6.79,6.79,0,1,1-6.78-6.78A6.77,6.77,0,0,1,20.05,18.49Z" fill="#231f20"/><path d="M27.42,23.88a9.31,9.31,0,1,0-3.3-7.11A9.31,9.31,0,0,0,27.42,23.88Zm6-15.42a8.3,8.3,0,1,1-8.3,8.31A8.32,8.32,0,0,1,33.42,8.46Z" fill="#231f20"/><path d="M39.86,27.26H27a9.28,9.28,0,0,0-4.22,1.25,7.89,7.89,0,0,0-4.15-1.43H7.92A7.8,7.8,0,0,0,.51,34.86v3.91a.5.5,0,0,0,.5.5h17.1v2a.5.5,0,0,0,.5.5H48.24a.51.51,0,0,0,.5-.5V36.56A9.31,9.31,0,0,0,39.86,27.26Zm7.88,13.53H19.11V36.56A8.3,8.3,0,0,1,27,28.26H39.83a8.31,8.31,0,0,1,7.91,8.3ZM1.51,34.86a6.79,6.79,0,0,1,6.43-6.78H18.57a6.89,6.89,0,0,1,3.27,1,9.3,9.3,0,0,0-3.73,7.45v1.71H1.51Z" fill="#231f20"/></g><g id="b56d0a57-824a-476d-b5c2-a838eaa4e0f0" data-name="LABELS"><text transform="translate(0.06 55.02)" font-size="6" fill="#231f20" font-family="Roboto-Regular, Roboto">person-two</text></g></svg>
